outputs/icons/navigation/list_alt_sharp.svg

<svg xmlns="http://www.w3.org/2000/svg" width="1200" height="1200" fill="none"><g clip-path="url(#a)"><path fill="#000" d="M150 700h200V500H150zm0 250h200V750H150zm0-500h200V250H150zm250 250h650V500H400zm0 250h650V750H400zm0-700v200h650V250z"/></g><defs><clipPath id="a"><path fill="#fff" d="M0 0h1200v1200H0z"/></clipPath></defs></svg>

<svg width="1200" height="1200" viewBox="0 0 1200 1200" fill="none" xmlns="http://www.w3.org/2000/svg"><g clip-path="url(#clip0_117_803)"><path d="M150 700H350V500H150V700ZM150 950H350V750H150V950ZM150 450H350V250H150V450ZM400 700H1050V500H400V700ZM400 950H1050V750H400V950ZM400 250V450H1050V250H400Z" fill="#1D1E23"/></g><defs><clipPath id="clip0_117_803"><path width="24" fill="white" d="M0 0H1200V1200H0V0z"/></clipPath></defs></svg>
